Numix-GalliumOS/22/actions/package-upgrade.svg

<?xml version="1.0" encoding="UTF-8" standalone="no"?>
<svg
   xmlns:dc="http://purl.org/dc/elements/1.1/"
   xmlns:cc="http://creativecommons.org/ns#"
   xmlns:rdf="http://www.w3.org/1999/02/22-rdf-syntax-ns#"
   xmlns:svg="http://www.w3.org/2000/svg"
   xmlns="http://www.w3.org/2000/svg"
   xmlns:sodipodi="http://sodipodi.sourceforge.net/DTD/sodipodi-0.dtd"
   xmlns:inkscape="http://www.inkscape.org/namespaces/inkscape"
   width="22"
   viewBox="0 0 22 22"
   height="22"
   id="svg2"
   version="1.1"
   inkscape:version="0.48.5 r10040"
   sodipodi:docname="package-upgrade.svg">
  <metadata
     id="metadata20">
    <rdf:RDF>
      <cc:Work
         rdf:about="">
        <dc:format>image/svg+xml</dc:format>
        <dc:type
           rdf:resource="http://purl.org/dc/dcmitype/StillImage" />
        <dc:title />
      </cc:Work>
    </rdf:RDF>
  </metadata>
  <defs
     id="defs18" />
  <sodipodi:namedview
     pagecolor="#ffffff"
     bordercolor="#666666"
     borderopacity="1"
     objecttolerance="10"
     gridtolerance="10"
     guidetolerance="10"
     inkscape:pageopacity="0"
     inkscape:pageshadow="2"
     inkscape:window-width="640"
     inkscape:window-height="480"
     id="namedview16"
     showgrid="false"
     inkscape:zoom="3.7926636"
     inkscape:cx="-10.154895"
     inkscape:cy="6.2458443"
     inkscape:window-x="298"
     inkscape:window-y="300"
     inkscape:window-maximized="0"
     inkscape:current-layer="svg2" />
  <g
     transform="matrix(.55556 0 0 .55556 -2.33333 11)"
     id="g4">
    <path
       style="fill:#c19553"
       d="M 8.0571429,-18 C 7.0285714,-18 6,-16.971429 6,-15.942857 L 6,16 c 0,0.971429 1.0285714,2 2,2 l 32,0 c 0.971429,0 2,-1.028571 2,-2 l 0,-32 c 0,-0.971429 -1.028571,-2 -2,-2 z"
       id="path6" />
  </g>
  <g
     style="fill:#fff"
     transform="matrix(.55556 0 0 .55556 -2.33333 -2.33333)"
     id="g8">
    <path
       style="fill-opacity:.196"
       d="M 8.0571429,6 C 7.0285714,6 6,7.0285714 6,8.0571429 L 6.0000001,18.6 C 10,18.6 38,18.6 42,18.6 L 42,8 C 42,7.0285714 40.971429,6 40,6 z"
       id="path10" />
    <path
       style="fill-opacity:.392"
       d="M 20.4,9.6000001 20.4,25.8 l 7.2,0 0,-16.1999999 z"
       id="path12" />
  </g>
  <path
     style="fill:#859900;fill-opacity:1"
     d="m 16,10 -6,6 4,0 0,6 4,0 0,-6 4,0 z"
     id="path14"
     inkscape:connector-curvature="0" />
</svg>

<svg xmlns="http://www.w3.org/2000/svg" viewBox="0 0 22 22">
 <g transform="matrix(.55556 0 0 .55556 -2.33333 11)">
  <path d="m 8.06 -18 c -1.029 0 -2.057 1.029 -2.057 2.057 l 0 31.943 c 0 0.971 1.029 2 2 2 l 32 0 c 0.971 0 2 -1.029 2 -2 l 0 -32 c 0 -0.971 -1.029 -2 -2 -2 z" style="fill:#c19553"/>
 </g>
 <g transform="matrix(.55556 0 0 .55556 -2.33333 -2.33333)" style="fill:#fff">
  <path d="m 8.06 6 c -1.029 0 -2.057 1.029 -2.057 2.057 l 0 10.543 c 4 0 32 0 36 0 l 0 -10.6 c 0 -0.971 -1.029 -2 -2 -2 z" style="fill-opacity:0.196"/>
  <path d="m 20.4 9.6 0 16.2 l 7.2 0 0 -16.2 z" style="fill-opacity:0.392"/>
 </g>
 <path d="m 16 10 -6 6 4 0 0 6 4 0 0 -6 4 0 z" style="fill:#859900;fill-opacity:1"/>
</svg>
